X:155
T: Der Meierin Sohn
N: Q3083E
O: Suedosteuropa, Jugoslawien, Slowenien, Krain
N: Melodievergleich zu Q0083A, anderes Lied.
R: ???
M: 2/4
L: 1/16
K: G
 | D4G4 | B4A4 | c2A2G2GB | A6z2 |
F4FAdB | B4A2G2 | F4A4 | G6z2 |
F4FAdB | B4A2G2 | F4A4 | G8

@@@ Tune index: 1210
